X: 67
T:Twilight Star
M:4/4
L:1/8
Z:abc by Bruce Osborne - bosborne@kos.net
K:G
D|GBAF GDB,D|GBe^c d2 ef|gfed cBAG|FGAB ADEF|!
GBAF GDB,D|GBe^c d2 ef|gfgd ecAF|G2 B2 G3:|!
|:B|d2 dB g2 gd|e2 ec a2 ag|fgfe dcBA|Bed^c d2 B=c|!
d2 dB g2 gd|e2 ec a2 ag|fgfe dcBA|G2 B2 G3:|!
